X:1
T:James Gibb editions
T:Ave verum corpus - Lemmens
T:#
%%score 1 { ( 2 3 ) | ( 4 5 ) }
L:1/8
Q:1/4=84
M:4/4
K:Eb
V:1 bass nm="Midi_74"
V:2 treble nm="Midi_20"
V:3 treble 
V:4 bass 
V:5 bass 
V:1
"^andante""^Ave verum corpus""^Jacques-Nicolas Lemmens\n(1823-81)"!p! B,4 G,4 | (E,3 G,) F,4 | %2
w: A- ve|ve\- * rum|
 (A,2 F,2) (D,2 B,2) | (A,3 G,) G,4 | B,4 C4 | D4 (E2 C2) | B,4 (C3 B,) | B,4 z4 | B,4 C4 | %9
w: cor\- * pus *|na\- * tum|Ex Ma-|ri- a *|Vir- gi\- *|ne,|Ve- re|
 (_D3 C) C4 | (B,2 G,2) (=E,2 C2) | (B,3 A,) A,4 | F,4 G,4 | (B,2 A,4) G,2 | (F,2 C2 A,2) F,2 | %15
w: pas\- * sum,|im\- * mo\- *|la\- * tum|In cru-|ce * pro|ho\- * * mi-|
 (E,4 D,4) | B,4 D4 | (D2 E2 C2) A,2 | (G,4 F,3) E, | E,4 z4 |!f! C4 G,4 | F,2 E,2 D,2 C,2 | G,,8 | %23
w: ne, *|in cru-|ce * * pro|ho\- * mi-|ne.|Cu- jus|la- tus per- fo-|ra-|
 G,,4 z4 | C4 G,4 | F,2 E,2 D,2 C,2 | A,,8- | A,,4 z4 | _D4 A,4 | _G,2 _F,2 E,2 _D,2 | =A,,8 | %31
w: tum|Ve- ro|flu- xit san- gui-|ne.||Es- to|no- bis prae- gus-|ta-|
 =A,,4 z4 | =D4 =A,4 | G,2 F,2 =E,2 D,2 | B,,8- | B,,8 | %36
w: tum|mor- tis|in ex- a- mi-|ne.||
[Q:1/4=50] !fermata!B,,4!p![Q:1/4=80] (B,2 C2) ||[M:3/2] (B,2 A,2) F,4 (A,2 D,2) | %38
w: * O *|cle\- * mens, O *|
 (E,2 G,2) B,,4 (B,2 C2) |[M:3/2][Q:1/4=80][Q:1/4=80] (B,2 A,2) F,4 A,2 D,2 | (E,2 G,2) B,4 _D,4 | %41
w: pi\- * e, O *|dul\- * cis Je- su,|Je\- * su Fi-|
 C,3 G, B,4 A,4 |"^cresc." G,4 ^F,3 =A, C4 | B,4 D8 | %44
w: li Ma- ri- ae,|Fi- li Ma- ri-|ae, Fi-|
"^rit."[Q:1/4=79] (E6[Q:1/4=78] C2)[Q:1/4=78] (A,2[Q:1/4=78] F,2) |[Q:1/4=76] B,12 | %46
w: li * Ma\- *|ri-|
[Q:1/4=75] E,8[Q:1/4=74] E,4 |[Q:1/4=72] B,,12 |[Q:1/4=72] [E,,E,]12- | [E,,E,]12 |] %50
w: ae, Ma-|ri-|ae.||
V:2
!p! B4 G4 | E3 G F4 | A2 F2 D2 B2 | A4 G4 | B4 c4 | d4 e2 c2 | B4 =A4 | B8- | B4 c4 | _d4 c4 | %10
 B8- | [GB]4 [FA]4- | [FA]4 [EG]4 | B2 A4 G2 | [CF]8 | E4 D4 | [FB]4- [Bd]4 | d2 e2 c2 A2 | G4 F4 | %19
 E8 | [CEG]8- | [EGc]8 | [Fd]4 [Ec]4 | [D=B]2 [CA]2 G4- | [CEG]8 | [EGc]8 | [_Ge]4 [_F_d]4 | %27
 [Ec]2 [_D__B]2 A4 | [_D_FA]8- | [FA_d]8 | [=G=e]4 [=F=d]4 | [=E^c]2 [DB]2 =A4- | [DFA]8 | %33
 [F=Ad]8 | [_Af]4 [G!courtesy!_e]4 | [Fd]2 [Ec]2 [DB]2 [CA]2 | !fermata![DF]4!p! B2 c2 || %37
[M:3/2] B2 A2 F4 [CA]2 [A,D]2 | E2 G2 B,4 B2 c2 |[M:3/2] B2 A2 F4 [CA]2 [A,D]2 | E2 G2- [GB]8 | %41
 [=EGB]4 [GB]4 [FA]4 |"^cresc." c12 | [GB]4 [_Ad]8 |"^rit." e8 c4 | [GB]4 A4 F4 | E4 G4 E4 | %47
 D4 F4 D4 | E12- | E12 |] %50
V:3
 G2 F2 E2 D2 | x4 F2 E2 | D2 x2 x4 | D2 B,2 E4- | E2 G2 F2 E2 | A4 G2 E2 | D2 F2 C2 E2 | %7
 D2 [FA]2 [EG]2 [DF]2 | G8 | A2 G2 A2 [EG]2 | [_DF]4 [C=E]4- | C8 | x8 | D4 _E4 | x6 x2 | x4 x4 | %16
 A6 F2 | [EB]4- [EA]2 [CF]2 | E6 D2 | [G,E]2 [A,C]2 [G,B,]4 | x6 x2 | x6 x2 | x4 x4 | %23
 x4 [=B,G]2 [DF]2 | x6 x2 | x6 x2 | x4 x4 | x4 [CA]2 [E_G]2 | x6 x2 | x6 x2 | x4 x4 | %31
 x4 [^C=A]2 [=EG]2 | x6 x2 | x6 x2 | x4 x4 | x4 x4 | x4 E4 ||[M:3/2] D8 x4 | x4 x4 E4 | %39
[M:3/2] D8 x4 | E4- E8 | C8 x4 | [CG]4 ^F4 =A4 | z4 z4 F4 | G4 A8 | x4 x4 x4 | x4 x4 x4 | %47
 x4 x4 x4 | x4 x4 x4 | x4 x4 x4 |] %50
V:4
 E,,8 | C2 B,2 A,2 G,2 | F,2 D,2 A,2 F,2 | F,4 E,2 F,2 | G,2 E,2 A,2 G,2 | F,2 B,,2 C,2 E,2 | F,8 | %7
 B,,8 | E2 _D2 C2 B,2 | A,2 B,2 C2 x2 | x8 | x8 | B,8- | B,2 x4 x2 | x6 x2 | %15
 [G,B,]2 [A,C]2 [F,B,]4 | x6 x2 | x6 x2 | B,2 C2 A,2 B,2 | x6 x2 | x6 x2 | F,2 E,2 D,2 C,2 | G,,8 | %23
 G,8 | C4 G,4 | F,2 E,2 D,2 C,2 | A,,8- | A,,8 | _D4 A,4 | _G,2 _F,2 E,2 _D,2 | =A,,8 | =A,8 | %32
 !courtesy!=D4 =A,4 | G,2 F,2 =E,2 D,2 | B,,8- | B,,8 | !fermata!B,,4 [E,G,]4 || %37
[M:3/2] F,4 B,2 A,2 F,4 | G,12 |[M:3/2] F,4 B,2 A,2 F,4 | G,4 E,2 B,,2 _D,4 | C,4 =E,4 F,2 C,2 | %42
"^cresc." !courtesy!_E,4 D8- | D8 x4 | E12- | E4 C4 A,4 | G,4 B,4 G,4 | F,4 A,4 F,4 | %48
 G,4- [G,B,]4 [F,A,]4 | [E,G,]12 |] %50
V:5
 x4 x4 | A,,8 | B,,8 | x4 x4 | x4 x4 | x4 x4 | x4 x4 | x4 x4 | E,4 =E,4 | F,8 | G,4 C,4 | %11
 F,2 C,2 F,2 _E,2 | =D,2 B,,2 E,2 B,,2 | F,2 B,,2 E,2 G,2 | A,4- [A,,A,]4 | B,,6 C,2 | %16
 D,2 E,2 F,2 A,2 | G,4 A,4 | B,4 B,,4 | E,,4 E,2 D,2 | C4 G,4 | x8 | x8 | x8 | x8 | x8 | x8 | x8 | %28
 x8 | x8 | x8 | x8 | x8 | x8 | x6 x2 | x6 x2 | x8 ||[M:3/2] B,,12 | E,,4 G,,2 B,,2 E,4 | %39
[M:3/2] B,,12 | E,,4 x8 | x12 | x4 D,4 ^F,4 | G,2 E,2 !courtesy!=F,4 B,,4 | C,4 F,,8 | B,,12 | %46
 E,12 | B,,12 | E,,12- | E,,12 |] %50

